assets/hyvjou.svg

<?xml version="1.0" encoding="UTF-8" standalone="no"?>
<svg
   xmlns:dc="http://purl.org/dc/elements/1.1/"
   xmlns:cc="http://creativecommons.org/ns#"
   xmlns:rdf="http://www.w3.org/1999/02/22-rdf-syntax-ns#"
   xmlns:svg="http://www.w3.org/2000/svg"
   xmlns="http://www.w3.org/2000/svg"
   xmlns:sodipodi="http://sodipodi.sourceforge.net/DTD/sodipodi-0.dtd"
   xmlns:inkscape="http://www.inkscape.org/namespaces/inkscape"
   width="59.316mm"
   height="35.1mm"
   version="1.1"
   viewBox="0 0 210.17 124.37"
   id="svg34"
   sodipodi:docname="hyvjou.svg"
   inkscape:version="0.92.2 (5c3e80d, 2017-08-06)">
  <defs
     id="defs38" />
  <sodipodi:namedview
     pagecolor="#ffffff"
     bordercolor="#666666"
     borderopacity="1"
     objecttolerance="10"
     gridtolerance="10"
     guidetolerance="10"
     inkscape:pageopacity="0"
     inkscape:pageshadow="2"
     inkscape:window-width="1366"
     inkscape:window-height="715"
     id="namedview36"
     showgrid="false"
     inkscape:zoom="1.4140015"
     inkscape:cx="30.544066"
     inkscape:cy="117.64349"
     inkscape:window-x="-8"
     inkscape:window-y="-8"
     inkscape:window-maximized="1"
     inkscape:current-layer="svg34" />
  <metadata
     id="metadata2">
    <rdf:RDF>
      <cc:Work
         rdf:about="">
        <dc:format>image/svg+xml</dc:format>
        <dc:type
           rdf:resource="http://purl.org/dc/dcmitype/StillImage" />
        <dc:title />
      </cc:Work>
    </rdf:RDF>
  </metadata>
  <g
     transform="matrix(3.1897 0 0 3.1897 -38.85 -110.23)"
     id="g32" />
  <path
     style="font-variant-ligatures:normal;font-variant-caps:normal;font-variant-numeric:normal;font-feature-settings:normal;stroke-width:7.60118723"
     d="M 93.824219 4.5488281 C 91.844686 4.5488281 90.200987 5.2222995 88.894531 6.5683594 C 87.627655 7.9143512 86.994141 9.4972184 86.994141 11.318359 C 86.994141 13.179126 87.648622 14.782846 88.955078 16.128906 C 90.301047 17.474966 91.923893 18.148438 93.824219 18.148438 C 95.684986 18.148438 97.288705 17.495909 98.634766 16.189453 C 99.980824 14.843484 100.65234 13.220638 100.65234 11.320312 C 100.65234 9.4199649 99.980824 7.8162449 98.634766 6.5097656 C 97.288659 5.2033091 95.68494 4.5488281 93.824219 4.5488281 z M 3.0253906 5.7324219 L 3.0253906 16.066406 L 13.714844 16.066406 L 13.714844 78.005859 L 3.0253906 78.003906 L 3.0253906 88.335938 L 71.673828 88.335938 L 71.673828 62.978516 L 61.460938 62.978516 L 61.460938 78.003906 L 26.185547 78.003906 L 26.185547 50.984375 L 56.886719 50.984375 L 56.886719 40.650391 L 26.185547 40.650391 L 26.185547 16.066406 L 61.460938 16.066406 L 61.460938 30.615234 L 71.673828 30.615234 L 71.673828 5.7324219 L 3.0253906 5.7324219 z M 154.39648 5.7363281 L 154.39648 15.771484 L 165.44141 15.771484 L 165.44141 38.515625 C 159.66126 32.339682 152.89244 29.251953 145.13281 29.251953 C 137.8087 29.251953 131.23585 31.983774 125.41602 37.447266 C 119.59618 42.910757 116.68555 50.374006 116.68555 59.835938 C 116.68555 69.2584 119.51645 76.521754 125.17773 81.628906 C 130.83924 86.736058 137.41208 89.291016 144.89453 89.291016 C 152.9708 89.291016 159.81958 86.163308 165.44141 79.908203 L 165.44141 88.339844 L 187.05664 88.339844 L 187.05664 78.304688 L 176.72461 78.304688 L 176.72461 5.7363281 L 154.39648 5.7363281 z M 79.630859 30.857422 L 79.630859 40.892578 L 88.597656 40.892578 L 88.597656 78.304688 L 79.630859 78.306641 L 79.630859 88.341797 L 108.72852 88.341797 L 108.72852 78.306641 L 99.880859 78.306641 L 99.880859 30.857422 L 79.630859 30.857422 z M 146.85352 39.705078 C 151.60432 39.705078 155.881 41.327925 159.68164 44.574219 C 163.52176 47.820512 165.44141 52.629946 165.44141 59.003906 C 165.44141 65.338399 163.55978 70.307523 159.79883 73.910156 C 156.07733 77.473322 151.80263 79.255859 146.97266 79.255859 C 141.98435 79.255859 137.68856 77.553279 134.08594 74.148438 C 130.52277 70.74382 128.74023 65.873556 128.74023 59.539062 C 128.74023 53.956944 130.48278 49.265493 133.9668 45.464844 C 137.45056 41.624725 141.74636 39.705078 146.85352 39.705078 z M 2.875 93.994141 L 2.875 98.330078 L 7.0351562 98.330078 L 7.0351562 124.32227 L 2.875 124.32227 L 2.875 128.6582 L 15.134766 128.6582 L 15.134766 124.32227 L 11.322266 124.32227 L 11.322266 98.330078 L 23.158203 129.00586 L 24.179688 129.00586 L 36.142578 98.330078 L 36.142578 124.32227 L 32.005859 124.32227 L 32.005859 128.6582 L 45.0625 128.6582 L 45.0625 124.32227 L 40.876953 124.32227 L 40.876953 98.330078 L 45.0625 98.330078 L 45.0625 93.994141 L 33.076172 93.994141 L 23.857422 117.74219 L 14.736328 93.994141 L 2.875 93.994141 z M 216.55859 93.994141 L 216.55859 104.53516 L 217.80469 119.26172 L 220.3457 119.26172 L 221.5918 104.53516 L 221.5918 93.994141 L 216.55859 93.994141 z M 76.337891 93.996094 L 76.337891 98.207031 L 80.625 98.207031 L 80.625 124.44727 L 76.337891 124.44727 L 76.337891 128.66016 L 85.259766 128.66016 L 85.259766 125.04688 C 85.957495 126.06027 87.104447 126.98185 88.699219 127.8125 C 90.293992 128.64316 92.053354 129.05859 93.980469 129.05859 C 97.419335 129.05859 100.23676 127.83674 102.42969 125.39453 C 104.63922 122.93577 105.74414 119.91256 105.74414 116.32422 C 105.74414 112.58617 104.61288 109.57868 102.35352 107.30273 C 100.11068 105.01024 97.328369 103.86523 94.005859 103.86523 C 90.550435 103.86523 87.63551 105.22658 85.259766 107.95117 L 85.259766 93.996094 L 76.337891 93.996094 z M 183.5918 93.996094 L 183.5918 98.207031 L 187.92773 98.207031 L 187.92773 124.44727 L 183.5918 124.44727 L 183.5918 128.6582 L 196.82422 128.6582 L 196.82422 124.44727 L 192.66406 124.44727 L 192.66406 116.52344 L 204.79883 128.6582 L 211.00391 128.6582 L 211.00391 124.44727 L 206.76758 124.44727 L 198.26953 115.97461 L 207.31641 108.44922 L 211.00391 108.44922 L 211.00391 104.53711 L 197.67188 104.53711 L 197.67188 108.44922 L 201.68359 108.44922 L 192.66406 115.65039 L 192.66406 93.996094 L 183.5918 93.996094 z M 121.06641 103.86328 C 116.13239 103.86328 112.66058 105.74149 110.65039 109.49609 L 115.18555 110.69141 C 116.24867 108.79752 117.96799 107.85156 120.34375 107.85156 C 121.72261 107.85156 122.83633 108.11681 123.68359 108.64844 C 124.54748 109.18004 125.09554 109.77884 125.32812 110.44336 C 125.56071 111.10788 125.67578 112.05385 125.67578 113.2832 L 125.67578 115.67578 C 123.56585 114.31353 121.38241 113.63281 119.12305 113.63281 C 116.69743 113.63281 114.62033 114.37104 112.89258 115.84961 C 111.18144 117.32811 110.32617 119.18888 110.32617 121.43164 C 110.32617 123.65773 111.13071 125.48536 112.74219 126.91406 C 114.37032 128.34279 116.28168 129.05664 118.47461 129.05664 C 121.29901 129.05664 123.85789 127.94488 126.15039 125.71875 L 126.15039 128.6582 L 134.42383 128.6582 L 134.42383 124.44727 L 130.36133 124.44727 L 130.36133 113.2832 C 130.36133 111.3228 130.24428 109.89516 130.01172 108.99805 C 129.79574 108.10094 129.36469 107.27005 128.7168 106.50586 C 128.0689 105.72504 127.081 105.0931 125.75195 104.61133 C 124.43942 104.11293 122.87722 103.86328 121.06641 103.86328 z M 168.26758 103.86328 C 163.33356 103.86328 159.86175 105.74149 157.85156 109.49609 L 162.38672 110.69141 C 163.44983 108.79752 165.16919 107.85156 167.54492 107.85156 C 168.92379 107.85156 170.03554 108.11681 170.88281 108.64844 C 171.74668 109.18004 172.29671 109.77884 172.5293 110.44336 C 172.76188 111.10788 172.87695 112.05385 172.87695 113.2832 L 172.87695 115.67578 C 170.76702 114.31353 168.58358 113.63281 166.32422 113.63281 C 163.89862 113.63281 161.82151 114.37104 160.09375 115.84961 C 158.38262 117.32811 157.52734 119.18888 157.52734 121.43164 C 157.52734 123.65773 158.33188 125.48536 159.94336 126.91406 C 161.5715 128.34279 163.48285 129.05664 165.67578 129.05664 C 168.50018 129.05664 171.05906 127.94488 173.35156 125.71875 L 173.35156 128.6582 L 181.62305 128.6582 L 181.62305 124.44727 L 177.5625 124.44727 L 177.5625 113.2832 C 177.5625 111.3228 177.4455 109.89516 177.21289 108.99805 C 176.99691 108.10094 176.56587 107.27005 175.91797 106.50586 C 175.27008 105.72504 174.28217 105.0931 172.95312 104.61133 C 171.64059 104.11293 170.0784 103.86328 168.26758 103.86328 z M 154.41016 104.16211 C 152.58276 104.16211 151.13745 104.31228 150.07422 104.61133 C 149.02758 104.91039 148.03092 105.52478 147.08398 106.45508 C 146.13704 107.38537 145.39686 108.55664 144.86523 109.96875 L 144.86523 104.53711 L 136.21875 104.53711 L 136.21875 108.74805 L 141.07812 108.74805 L 141.07812 124.44727 L 136.21875 124.44727 L 136.21875 128.6582 L 151.07031 128.6582 L 151.07031 124.44727 L 145.8125 124.44727 L 145.8125 119.13867 C 145.8125 115.84937 146.09532 113.57313 146.66016 112.31055 C 147.24162 111.03133 148.12126 110.15169 149.30078 109.66992 C 150.49705 109.18815 152.30012 108.94727 154.70898 108.94727 L 155.65625 108.94727 L 155.65625 104.16211 L 154.41016 104.16211 z M 47.605469 104.53711 L 47.605469 108.74805 L 51.019531 108.74805 L 51.019531 119.83789 C 51.019531 122.32988 51.194092 124.13984 51.542969 125.26953 C 51.891823 126.3826 52.588135 127.29736 53.634766 128.01172 C 54.698 128.70947 56.036972 129.05664 57.648438 129.05664 C 60.190219 129.05664 62.846819 128.00244 65.621094 125.89258 L 65.621094 128.6582 L 74.517578 128.6582 L 74.517578 124.44727 L 70.357422 124.44727 L 70.357422 104.53711 L 61.361328 104.53711 L 61.361328 108.74805 L 65.621094 108.74805 L 65.621094 121.80664 C 63.129213 123.89988 60.786676 124.94531 58.59375 124.94531 C 57.862766 124.94531 57.257163 124.74636 56.775391 124.34766 C 56.293618 123.94894 56.003985 123.44281 55.904297 122.82812 C 55.804631 122.2134 55.753906 121.01587 55.753906 119.23828 L 55.753906 104.53711 L 47.605469 104.53711 z M 93.158203 108.17578 C 95.201654 108.17578 96.980412 108.88086 98.492188 110.29297 C 100.02059 111.68839 100.78516 113.65744 100.78516 116.19922 C 100.78516 118.82405 100.02059 120.91687 98.492188 122.47852 C 96.963805 124.04015 95.145021 124.82227 93.035156 124.82227 C 91.024933 124.82227 89.246174 124.09085 87.701172 122.62891 C 86.172769 121.15046 85.408203 119.1571 85.408203 116.64844 C 85.408203 113.90729 86.197153 111.81447 87.775391 110.36914 C 89.353556 108.9072 91.148027 108.17578 93.158203 108.17578 z M 119.4707 117.29492 C 121.56388 117.29492 123.63238 118.09265 125.67578 119.6875 L 125.67578 122.50391 C 123.63233 124.43101 121.46437 125.39453 119.17188 125.39453 C 117.84282 125.39453 116.78863 125.01224 116.00781 124.24805 C 115.24363 123.48385 114.86133 122.5379 114.86133 121.4082 C 114.86131 120.19546 115.30114 119.2056 116.18164 118.44141 C 117.06214 117.67721 118.15829 117.29492 119.4707 117.29492 z M 166.67188 117.29492 C 168.76505 117.29492 170.83355 118.09265 172.87695 119.6875 L 172.87695 122.50391 C 170.83351 124.43101 168.66555 125.39453 166.37305 125.39453 C 165.044 125.39453 163.98981 125.01224 163.20898 124.24805 C 162.4448 123.48385 162.0625 122.5379 162.0625 121.4082 C 162.0625 120.19546 162.50233 119.2056 163.38281 118.44141 C 164.26332 117.67721 165.35945 117.29492 166.67188 117.29492 z M 216.03516 122.52539 L 216.03516 128.65625 L 222.16602 128.65625 L 222.16602 122.52539 L 216.03516 122.52539 z "
     transform="matrix(0.93749948,0,0,0.93749948,-0.00234552,0)"
     id="path908" />
</svg>

<svg width="59.316mm" height="35.1mm" version="1.1" viewBox="0 0 210.17 124.37" xmlns="http://www.w3.org/2000/svg">
 <path transform="matrix(.9375 0 0 .9375 -.0023455 0)" d="m93.824 4.5488c-1.9795 0-3.6232 0.67347-4.9297 2.0195-1.2669 1.346-1.9004 2.9289-1.9004 4.75 0 1.8608 0.65448 3.4645 1.9609 4.8105 1.346 1.3461 2.9688 2.0195 4.8691 2.0195 1.8608 0 3.4645-0.65253 4.8105-1.959 1.3461-1.346 2.0176-2.9688 2.0176-4.8691 0-1.9003-0.67152-3.5041-2.0176-4.8105-1.3461-1.3065-2.9498-1.9609-4.8105-1.9609zm-90.799 1.1836v10.334h10.689v61.939l-10.689-0.001953v10.332h68.648v-25.357h-10.213v15.025h-35.275v-27.02h30.701v-10.334h-30.701v-24.584h35.275v14.549h10.213v-24.883h-68.648zm151.37 0.0039062v10.035h11.045v22.744c-5.7802-6.1759-12.549-9.2637-20.309-9.2637-7.3241 0-13.897 2.7318-19.717 8.1953-5.8198 5.4635-8.7305 12.927-8.7305 22.389 0 9.4225 2.8309 16.686 8.4922 21.793 5.6615 5.1072 12.234 7.6621 19.717 7.6621 8.0763 0 14.925-3.1277 20.547-9.3828v8.4316h21.615v-10.035h-10.332v-72.568h-22.328zm-74.766 25.121v10.035h8.9668v37.412l-8.9668 0.001953v10.035h29.098v-10.035h-8.8477v-47.449h-20.25zm67.223 8.8477c4.7508 0 9.0275 1.6228 12.828 4.8691 3.8401 3.2463 5.7598 8.0557 5.7598 14.43 0 6.3345-1.8816 11.304-5.6426 14.906-3.7215 3.5632-7.9962 5.3457-12.826 5.3457-4.9883 0-9.2841-1.7026-12.887-5.1074-3.5632-3.4046-5.3457-8.2749-5.3457-14.609 0-5.5821 1.7426-10.274 5.2266-14.074 3.4838-3.8401 7.7796-5.7598 12.887-5.7598zm-143.98 54.289v4.3359h4.1602v25.992h-4.1602v4.3359h12.26v-4.3359h-3.8125v-25.992l11.836 30.676h1.0215l11.963-30.676v25.992h-4.1367v4.3359h13.057v-4.3359h-4.1855v-25.992h4.1855v-4.3359h-11.986l-9.2188 23.748-9.1211-23.748h-11.861zm213.68 0v10.541l1.2461 14.727h2.541l1.2461-14.727v-10.541h-5.0332zm-140.22 0.001953v4.2109h4.2871v26.24h-4.2871v4.2129h8.9219v-3.6133c0.69773 1.0134 1.8447 1.935 3.4395 2.7656 1.5948 0.83066 3.3541 1.2461 5.2812 1.2461 3.4389 0 6.2563-1.2218 8.4492-3.6641 2.2095-2.4588 3.3144-5.482 3.3144-9.0703 0-3.738-1.1313-6.7455-3.3906-9.0215-2.2428-2.2925-5.0252-3.4375-8.3477-3.4375-3.4554 0-6.3703 1.3614-8.7461 4.0859v-13.955h-8.9219zm107.25 0v4.2109h4.3359v26.24h-4.3359v4.2109h13.232v-4.2109h-4.1602v-7.9238l12.135 12.135h6.2051v-4.2109h-4.2363l-8.498-8.4727 9.0469-7.5254h3.6875v-3.9121h-13.332v3.9121h4.0117l-9.0195 7.2012v-21.654h-9.0723zm-62.525 9.8672c-4.934 0-8.4058 1.8782-10.416 5.6328l4.5352 1.1953c1.0631-1.8939 2.7824-2.8398 5.1582-2.8398 1.3789 0 2.4926 0.26525 3.3398 0.79688 0.86389 0.5316 1.412 1.1304 1.6445 1.7949 0.23259 0.66452 0.34766 1.6105 0.34766 2.8398v2.3926c-2.1099-1.3622-4.2934-2.043-6.5527-2.043-2.4256 0-4.5027 0.73823-6.2305 2.2168-1.7111 1.4785-2.5664 3.3393-2.5664 5.582 0 2.2261 0.80454 4.0537 2.416 5.4824 1.6281 1.4287 3.5395 2.1426 5.7324 2.1426 2.8244 0 5.3833-1.1118 7.6758-3.3379v2.9394h8.2734v-4.2109h-4.0625v-11.164c0-1.9604-0.11705-3.388-0.34961-4.2852-0.21598-0.89711-0.64703-1.728-1.2949-2.4922-0.6479-0.78082-1.6358-1.4128-2.9648-1.8945-1.3125-0.4984-2.8747-0.74805-4.6855-0.74805zm47.201 0c-4.934 0-8.4058 1.8782-10.416 5.6328l4.5352 1.1953c1.0631-1.8939 2.7825-2.8398 5.1582-2.8398 1.3789 0 2.4906 0.26525 3.3379 0.79688 0.86387 0.5316 1.4139 1.1304 1.6465 1.7949 0.23258 0.66452 0.34765 1.6105 0.34765 2.8398v2.3926c-2.1099-1.3622-4.2934-2.043-6.5527-2.043-2.4256 0-4.5027 0.73823-6.2305 2.2168-1.7111 1.4785-2.5664 3.3393-2.5664 5.582 0 2.2261 0.80454 4.0537 2.416 5.4824 1.6281 1.4287 3.5395 2.1426 5.7324 2.1426 2.8244 0 5.3833-1.1118 7.6758-3.3379v2.9394h8.2715v-4.2109h-4.0606v-11.164c0-1.9604-0.117-3.388-0.34961-4.2852-0.21598-0.89711-0.64702-1.728-1.2949-2.4922-0.64789-0.78082-1.6358-1.4128-2.9648-1.8945-1.3125-0.4984-2.8747-0.74805-4.6855-0.74805zm-13.857 0.29883c-1.8274 0-3.2727 0.15017-4.3359 0.44922-1.0466 0.29906-2.0433 0.91345-2.9902 1.8438-0.94694 0.93029-1.6871 2.1016-2.2188 3.5137v-5.4316h-8.6465v4.2109h4.8594v15.699h-4.8594v4.2109h14.852v-4.2109h-5.2578v-5.3086c0-3.2893 0.28282-5.5655 0.84766-6.8281 0.58146-1.2792 1.4611-2.1589 2.6406-2.6406 1.1963-0.48177 2.9993-0.72265 5.4082-0.72265h0.94727v-4.7852h-1.2461zm-106.8 0.375v4.2109h3.4141v11.09c0 2.492 0.17456 4.302 0.52344 5.4316 0.34885 1.1131 1.0452 2.0278 2.0918 2.7422 1.0632 0.69775 2.4022 1.0449 4.0137 1.0449 2.5418 0 5.1984-1.0542 7.9727-3.1641v2.7656h8.8965v-4.2109h-4.1602v-19.91h-8.9961v4.2109h4.2598v13.059c-2.4919 2.0932-4.8344 3.1387-7.0273 3.1387-0.73098 0-1.3366-0.19895-1.8184-0.59765-0.48177-0.39872-0.77141-0.90485-0.87109-1.5195-0.099666-0.61472-0.15039-1.8122-0.15039-3.5898v-14.701h-8.1484zm45.553 3.6387c2.0435 0 3.8222 0.70508 5.334 2.1172 1.5284 1.3954 2.293 3.3645 2.293 5.9062 0 2.6248-0.76457 4.7176-2.293 6.2793-1.5284 1.5616-3.3472 2.3438-5.457 2.3438-2.0102 0-3.789-0.73142-5.334-2.1934-1.5284-1.4784-2.293-3.4718-2.293-5.9805 0-2.7412 0.78895-4.834 2.3672-6.2793 1.5782-1.4619 3.3726-2.1934 5.3828-2.1934zm26.312 9.1191c2.0932 0 4.1617 0.79773 6.2051 2.3926v2.8164c-2.0434 1.9271-4.2114 2.8906-6.5039 2.8906-1.3291 0-2.3832-0.38229-3.1641-1.1465-0.76418-0.7642-1.1465-1.7102-1.1465-2.8398-2e-5 -1.2127 0.43981-2.2026 1.3203-2.9668 0.8805-0.7642 1.9766-1.1465 3.2891-1.1465zm47.201 0c2.0932 0 4.1617 0.79773 6.2051 2.3926v2.8164c-2.0434 1.9271-4.2114 2.8906-6.5039 2.8906-1.329 0-2.3832-0.38229-3.1641-1.1465-0.76418-0.7642-1.1465-1.7102-1.1465-2.8398 0-1.2127 0.43983-2.2026 1.3203-2.9668 0.88051-0.7642 1.9766-1.1465 3.2891-1.1465zm49.363 5.2305v6.1309h6.1309v-6.1309h-6.1309z" stroke-width="7.6012" style="font-feature-settings:normal;font-variant-caps:normal;font-variant-ligatures:normal;font-variant-numeric:normal"/>
</svg>
